!!!COM:      Bach, Johann Sebastian
!!!CDT:      1685/03/31/-1750/07/28/
!!!OPR@@GER: Das wohltemperirte Clavier
!!!OVM@@GER: Band I
!!!OPR@ENG:  Well-Tempered Clavier
!!!OVM@ENG:  Book I
!!!OTL:      Prelude
!!!OKY:      A minor
!!!ONM:      no. 20
!!!SCT:      BWV 865
!!!OMV:      1
**kern	**kern	**kern	**kern
*clefF4	*	*	*clefG2
*M9/8	*	*	*M9/8
*MM58	*MM58	*MM58	*MM58
=1-	=1-	=1-	=1-
4.AA	8ryy	8ryy	16a
.	.	.	16b
.	1ryy	1ryy	8cc
.	.	.	8ee
16A	.	.	8cc
16G#	.	.	.
16A	.	.	8a
16G#	.	.	.
16A	.	.	8e
16G#	.	.	.
8A	.	.	8a
8E	.	.	8cc
8C	.	.	8ee
=2	=2	=2	=2
4.AA	8ryy	8ryy	16b
.	.	.	16cc
.	1ryy	1ryy	8dd
.	.	.	8ff
16A	.	.	8dd
16G#	.	.	.
16A	.	.	8b
16G#	.	.	.
16A	.	.	8g#
16G#	.	.	.
8A	.	.	8b
8F	.	.	8dd
8D	.	.	8ff
=3	=3	=3	=3
4.AA	8ryy	8ryy	16dd
.	.	.	16ee
.	1ryy	1ryy	8ff
.	.	.	8gg#
16A	.	.	8ff
16G#	.	.	.
16A	.	.	8dd
16G#	.	.	.
16A	.	.	8b
16G#	.	.	.
8A	.	.	8dd
8F	.	.	8ff
8D	.	.	8gg#X
=4	=4	=4	=4
4.AA	8ryy	8ryy	8aa
.	1ryy	1ryy	16ggn
.	.	.	16ff
.	.	.	16ee
.	.	.	16dd
8r	.	.	8cc
8a	.	.	8r
8e	.	.	8r
8c	.	.	4.r
8A	.	.	.
8d#	.	.	.
=5	=5	=5	=5
*	*staff:12	*staff:12	*
*	*clefG2	*clefG2	*
16E	4.b	4.ee	4.gg
16F#	.	.	.
8G	.	.	.
8B	.	.	.
8G	4.ryy	4.ryy	16ee
.	.	.	16dd#
8E	.	.	16ee
.	.	.	16dd#
8BB	.	.	16ee
.	.	.	16dd#
8E	4.ryy	4.ryy	16ee
.	.	.	16b
8G	.	.	16a
.	.	.	16g
8B	.	.	16f#
.	.	.	16e
=6	=6	=6	=6
16F#	4.e	4.a	[4.cc
16G	.	.	.
8A	.	.	.
8c	.	.	.
8A	4.ryy	4.ryy	16cc]
.	.	.	16b
8F#	.	.	16cc
.	.	.	16b
8D#	.	.	16cc
.	.	.	16b
8F#	4.ryy	4.ryy	16cc
.	.	.	16gg
8A	.	.	16ff#
.	.	.	16ee
8c	.	.	16dd#
.	.	.	16ee
=7	=7	=7	=7
16A	4.f#	4.a 4.cc	[4.dd#
16B	.	.	.
8c	.	.	.
8d#	.	.	.
8c	4.ryy	4.ryy	16dd#]
.	.	.	16ee
8A	.	.	16ff#X
.	.	.	16ee
8F#	.	.	16ff#
.	.	.	16ee
8A	4.ryy	4.ryy	16ff#
.	.	.	16ee
8c	.	.	16dd#X
.	.	.	16ff#
8d#X	.	.	16b
.	.	.	16a
=8	=8	=8	=8
8e	8ryy	8ryy	[4.g
16E	1ryy	1ryy	.
16F#	.	.	.
16G	.	.	.
16A	.	.	.
8B	.	.	8g]
8r	.	.	8e
8r	.	.	8g
4.r	.	.	8b
.	.	.	8ee
.	.	.	8a#
=9	=9	=9	=9
16e	4.b	4.ee	[4.gg
16f#	.	.	.
8g	.	.	.
8b	.	.	.
8g	4.ryy	4.ryy	16gg]
.	.	.	16ff#
8e	.	.	16gg
.	.	.	16ff#
8B	.	.	16gg
.	.	.	16ff#
8c#	4.ryy	4.ryy	16gg
.	.	.	16ffn
8e	.	.	16ee
.	.	.	16dd
8a	.	.	16cc#
.	.	.	16b
=10	=10	=10	=10
16d	4.a	4.dd	[4.ff
16e	.	.	.
8f	.	.	.
8a	.	.	.
8f	4.ryy	4.ryy	16ff]
.	.	.	16ee
8d	.	.	16ff
.	.	.	16ee
8A	.	.	16ff
.	.	.	16ee
8B	4.ryy	4.ryy	16ff
.	.	.	16ee
8d	.	.	16dd
.	.	.	16cc
8g	.	.	16b
.	.	.	16a
=11	=11	=11	=11
16c	4.g	4.cc	[4.ee
16d	.	.	.
8e	.	.	.
8g	.	.	.
8e	4.ryy	4.ryy	16ee]
.	.	.	16dd
8c	.	.	16ee
.	.	.	16dd
8G	.	.	16ee
.	.	.	16dd
8A	4.ryy	4.ryy	16cc
.	.	.	16gg
8c	.	.	16ff
.	.	.	16ee
8f	.	.	16dd
.	.	.	16cc
=12	=12	=12	=12
8G	8ryy	8ryy	16b
.	.	.	16ee
8B	1ryy	1ryy	16dd
.	.	.	16cc
8d	.	.	16b
.	.	.	16a
8f	.	.	16g
.	.	.	16cc
8d	.	.	16b
.	.	.	16a
8B	.	.	16g
.	.	.	16f
8G	.	.	16e
.	.	.	16a
8B	.	.	16g
.	.	.	16f
8G	.	.	16e
.	.	.	16d
=13	=13	=13	=13
*	*clefF4	*	*
[4.c	2.ryy	8ryy	16e
.	.	.	16f
.	.	1ryy	8g
.	.	.	8cc
16c]	.	.	8g
16A	.	.	.
16G	.	.	8e
16F	.	.	.
16E	.	.	8c
16D	.	.	.
16C	[4.C	.	8e
16D	.	.	.
16E	.	.	8g
16F	.	.	.
16G	.	.	8cc
16E	.	.	.
=14	=14	=14	=14
[4.A	2.C_	8ryy	16f
.	.	.	16g
.	.	1ryy	8a
.	.	.	8cc
16A]	.	.	8a
16C	.	.	.
16D	.	.	8f
16E	.	.	.
16F	.	.	8c
16G	.	.	.
16A	4.C_	.	8f
16G	.	.	.
16F	.	.	8a
16E	.	.	.
16D	.	.	8cc
16C	.	.	.
=15	=15	=15	=15
[4.D	4.C]	8ryy	16b
.	.	.	16cc
.	.	1ryy	8dd
.	.	.	8ff
16D]	16BB	.	8dd
16E	16ryy	.	.
16D	8ryy	.	8b
16C	.	.	.
16BB	8ryy	.	8g
16AA	.	.	.
16GG	4.ryy	.	8b
16AA	.	.	.
16GG	.	.	8dd
16FF	.	.	.
16EE	.	.	8ff
16DD	.	.	.
=16	=16	=16	=16
*	*clefG2	*	*
8CC	16r	4ryy	[2.ee
.	16dd	.	.
8r	16cc	.	.
.	16b	.	.
8r	16cc	[8cc	.
.	[16g	.	.
16e	4.g]	4.cc_	.
16d	.	.	.
16c	.	.	.
16B	.	.	.
16c	.	.	.
16G	.	.	.
16E	4.g	4.cc]	4.ee]
16G	.	.	.
16F	.	.	.
16E	.	.	.
16D	.	.	.
16C	.	.	.
=17	=17	=17	=17
8F#	16r	8ryy	4.ee-
.	16a	.	.
8F#	16b-	1ryy	.
.	16cc	.	.
8F#	16b-	.	.
.	16a	.	.
8F#	16r	.	4.dd
.	16a	.	.
8F#	16b-	.	.
.	16cc	.	.
8F#	16b-	.	.
.	16a	.	.
8F#	16r	.	8aa
.	16a	.	.
8F#	16b-	.	8r
.	16cc	.	.
8F#	16b-	.	8r
.	16a	.	.
=18	=18	=18	=18
8G	16r	4ryy	[2.b-
.	16a	.	.
8r	16g	.	.
.	16f#	.	.
8r	16g	[8g	.
.	[16d	.	.
16B-	4.d]	4.g_	.
16A	.	.	.
16G	.	.	.
16F#	.	.	.
16G	.	.	.
16D	.	.	.
16BB-X	4.d	4.g]	4.b-]
16D	.	.	.
16C	.	.	.
16BB-	.	.	.
16AA	.	.	.
16GG	.	.	.
=19	=19	=19	=19
8C#	16r	8ryy	4.b-
.	16e	.	.
8C#	16f	1ryy	.
.	16g	.	.
8C#	16f	.	.
.	16e	.	.
8C#	16r	.	4.a
.	16e	.	.
8C#	16f	.	.
.	16g	.	.
8C#	16f	.	.
.	16e	.	.
8C#	16r	.	8ee
.	16e	.	.
8C#	16f	.	8r
.	16g	.	.
8C#	16f	.	8r
.	16e	.	.
=20	=20	=20	=20
16D	8ryy	8ryy	[4.f
16E	.	.	.
8F	1ryy	1ryy	.
8A	.	.	.
8F	.	.	16f]
.	.	.	16e
8D	.	.	16f
.	.	.	16a
8AA	.	.	16dd
.	.	.	16a
8D	.	.	16ff
.	.	.	16ee
8F	.	.	16dd
.	.	.	16cc
8A	.	.	16b
.	.	.	16a
=21	=21	=21	=21
16D	8ryy	8ryy	[4.gg#
16E	.	.	.
8F	1ryy	1ryy	.
8G#	.	.	.
8F	.	.	16gg#]
.	.	.	16aa
8D	.	.	16bb
.	.	.	16aa
8BB	.	.	16gg#X
.	.	.	16ff#
8D	.	.	16ee
.	.	.	16ffn
8F	.	.	16ee
.	.	.	16dd
8G#X	.	.	16cc
.	.	.	16b
=22	=22	=22	=22
4.C	8ryy	8ryy	16a
.	.	.	16b
.	1ryy	1ryy	8cc
.	.	.	8ee
16A	.	.	8cc
16G#	.	.	.
16A	.	.	8a
16G#	.	.	.
16A	.	.	8e
16G#	.	.	.
8A	.	.	16ee
.	.	.	16dd
8E	.	.	16cc
.	.	.	16b
8C	.	.	16a
.	.	.	16g#
=23	=23	=23	=23
4.FF	8ryy	8ryy	16a
.	.	.	16b
.	1ryy	1ryy	8cc
.	.	.	8aa
16A	.	.	8ee
16G#	.	.	.
16A	.	.	8cc
16G#	.	.	.
16A	.	.	8a
16G#	.	.	.
8A	.	.	16aa
.	.	.	16gg
8B	.	.	16ff
.	.	.	16ee
8c	.	.	16dd
.	.	.	16cc
=24	=24	=24	=24
8D	8ryy	8ryy	16ff
.	.	.	16ee
8E	1ryy	1ryy	16dd
.	.	.	16cc
8F	.	.	16b
.	.	.	16a
8BB	.	.	16dd
.	.	.	16cc
8C	.	.	16b
.	.	.	16a
8D	.	.	16g#
.	.	.	16f#
8GG#	.	.	16b
.	.	.	16a
8AA	.	.	16g#X
.	.	.	16f#X
8BB	.	.	16e
.	.	.	16d
=25	=25	=25	=25
[4.CC	8ryy	8ryy	16e
.	.	.	16an
.	1ryy	1ryy	16gn
.	.	.	16f
.	.	.	16e
.	.	.	16d
8CC]	.	.	16c
.	.	.	16f
8C	.	.	16e
.	.	.	16d
8D	.	.	16c
.	.	.	16B
8E	.	.	16A
.	.	.	16d
8D	.	.	16c
.	.	.	16B
8E	.	.	16A
.	.	.	16G#
=26	=26	=26	=26
*	*staff:1	*	*
*	*clefF4	*	*
[2.AA	[4.AA	8ryy	16A
.	.	.	16B
.	.	1ryy	16c#
.	.	.	16d
.	.	.	16e
.	.	.	16f
.	16AA]	.	8g
.	16BB	.	.
.	16C#	.	8e
.	16D	.	.
.	16E	.	8c#X
.	16F	.	.
4.AA_	8G	.	16b-
.	.	.	16c#
.	8F	.	16a
.	.	.	16c#
.	8E	.	16g
.	.	.	16c#
=27	=27	=27	=27
*	*	*staff:2	*
4.AA_	[4.D	4.ryy	16f
.	.	.	16a
.	.	.	16bn
.	.	.	16cc#
.	.	.	16dd
.	.	.	16ee
16AA]	16D]	4ryy	8ff
[16A	16A	.	.
4A_	16B	.	8dd
.	16c#	.	.
*MM50	*MM50	*MM50	*MM50
.	16d	8ryy	8b
.	16e	.	.
4.A_	8f	4.b	16aa
.	.	.	16gg#
*MM40	*MM40	*MM40	*MM40
.	8e	.	16aa
.	.	.	16gg#
.	8d	.	16aa
.	.	.	16gg#
=28	=28	=28	=28
1A]	1e	1cc# 1ee	1aa
8ryy	8ryy	8ryy	8ryy
==	==	==	==
*-	*-	*-	*-
!!!AFR:  prelude
!!!EFL:  39/96
!!!END:  1994/01/19/
!!!VID:  3228856015 Bach, BWV 865-01
!!!AST:  Baroque
!!!OCY:  Deutschland
!!!ODT:  1722///
!!!PDT:  1801///
!!!EED:  Walter Hewlett
!!!ENC:  Walter Hewlett
!!!YOR:  Bach Gesellschaft Edition xiv
!!!AFT:  enhanced SCORE
!!!RDT:  2011/10/07/ by Andreas Kornstaedt using massScr2hmd
!!!SCA1: Thematisch-systematisches Verzeichnis der musikalischen Werke 
!!!SCA2: Johann Sebastian Bach: Bach-Werke-Verzeichnis (Schmieder)
!!!YEC1: Copyright 1994, 2000 Center for Computer Assisted Research 
!!!YEC2: in the Humanities
!!!YEM1: Rights to all derivative editions reserved.
!!!YEM2: Refer to licensing agreement for further details.
!!!YEN:  United States of America
!!!ref:  @{OTL}, @{SCT}
!!muse2ps: T^@{OTL} @{ONM} in @{OKY}^C^J.S. Bach\n@{SCT}-@{OMV}^
!!muse2ps: u^@{OPR@ENG}, @{OVM@ENG}^j
